Hatter-kde-dark/actions/24/transform-shear-down.svg

<?xml version="1.0" encoding="UTF-8"?>
<svg viewBox="0 0 24 24" xmlns="http://www.w3.org/2000/svg">
 <defs id="defs3051">
  <style id="current-color-scheme" type="text/css">.ColorScheme-Text {
        color:#dedede;
      }</style>
 </defs>
 <path class="ColorScheme-Text" d="m20 4-1 0.099609-9 0.90039v1 9 1l1-0.099609 9-0.90039v-1-9-1zm-1 1.0996v9l-8 0.80078v-9l8-0.80078zm-15 1.9004v1 11 1h9 1v-1-2h-1v2h-8v-11h4v-1h-5z" fill="currentColor"/>
</svg>

<svg xmlns="http://www.w3.org/2000/svg" viewBox="0 0 24 24">
  <defs id="defs3051">
    <style type="text/css" id="current-color-scheme">
      .ColorScheme-Text {
        color:#dedede;
      }
      </style>
  </defs>
 <path style="fill:currentColor;fill-opacity:1;stroke:none" 
     d="M 20 4 L 19 4.0996094 L 10 5 L 10 6 L 10 15 L 10 16 L 11 15.900391 L 20 15 L 20 14 L 20 5 L 20 4 z M 19 5.0996094 L 19 14.099609 L 11 14.900391 L 11 5.9003906 L 19 5.0996094 z M 4 7 L 4 8 L 4 19 L 4 20 L 13 20 L 14 20 L 14 19 L 14 17 L 13 17 L 13 19 L 5 19 L 5 8 L 9 8 L 9 7 L 4 7 z "
     class="ColorScheme-Text"
     />
</svg>
